svg/finish_flag.svg

<svg xmlns="http://www.w3.org/2000/svg" viewBox="0 0 32 32"><path style="text-indent:0;text-align:start;line-height:normal;text-transform:none;block-progression:tb;-inkscape-font-specification:Bitstream Vera Sans" d="M5 4v24h2v-8h20V4H5zm2 2h3v3h3V6h3v3h3V6h3v3h3v3h-3v3h3v3h-3v-3h-3v3h-3v-3h-3v3h-3v-3H7v-3h3V9H7V6zm3 6v3h3v-3h-3zm3 0h3V9h-3v3zm3 0v3h3v-3h-3zm3 0h3V9h-3v3z"/></svg>

<svg xmlns="http://www.w3.org/2000/svg" viewBox="0 0 32 32" enable-background="new 0 0 32 32"><path d="M 5 4 L 5 5 L 5 28 L 7 28 L 7 20 L 26 20 L 27 20 L 27 19 L 27 5 L 27 4 L 26 4 L 6 4 L 5 4 z M 7 6 L 10 6 L 10 9 L 13 9 L 13 6 L 16 6 L 16 9 L 19 9 L 19 6 L 22 6 L 22 9 L 25 9 L 25 12 L 22 12 L 22 15 L 25 15 L 25 18 L 22 18 L 22 15 L 19 15 L 19 18 L 16 18 L 16 15 L 13 15 L 13 18 L 10 18 L 10 15 L 7 15 L 7 12 L 10 12 L 10 9 L 7 9 L 7 6 z M 10 12 L 10 15 L 13 15 L 13 12 L 10 12 z M 13 12 L 16 12 L 16 9 L 13 9 L 13 12 z M 16 12 L 16 15 L 19 15 L 19 12 L 16 12 z M 19 12 L 22 12 L 22 9 L 19 9 L 19 12 z"/></svg>
